X:1
T:Non sum laeta
T:Daniel Friderici
T:Source : Bicinia sacra---Rostock---J.Richelius---1642. Editor : André Vierendeels (04/07/17).
T:Notes : Original clefs : G2, G2 Original note values have been quartered in 3-beat measures Editorial accidentals above the staff
T:Non sum laeta
T:©
T:©
T:©
C:Daniel Friderici
Z:©
%%score [ 1 2 ]
L:1/8
Q:1/4=120
M:2/2
K:C
V:1 treble nm="Soprano 1" snm="S 1"
V:2 treble nm="Soprano 2" snm="S 2"
V:1
 d8 | A8 | z2 a4 d2 | edef e2 e2 | d8 | ^cBcd e4 | z2 a4 a2 | gfga g2 g2 | f8 | e8 | z2 a4 a2 | %11
w: Non|sum,|non sum|lae- * * * * ta|se-|* * * * ges,|non sum|lae- * * * * ta|se-|ges,|non sum|
 gfga g2 g2 | f8 | e8 | a3 a d2 d2 | g4 e4 | f3 f d2 d2 | e4 A2 a2 | f4 e4 | z4 A4 | d2 e2 f2 ed | %21
w: lae- * * * * ta|se-|ges,|lo- ti- um sum|tri- ste,|lo- ti- um sum|tri- ste, sum|trit- te,|sed|o- * * * *|
 e2 f2 g2 f2 | e2 d3 ^c/B/ c2 | d8 :: e2 ee f2 d2 | ^c4 z4 | e2 ee f2 d2 | ^c2 cc d2 B2 | A4 z4 | %29
w: ||ro:|Me ta- men in Mes-|sem,|me ta- men in Mes-|em, ta- men in Mes-|sem,|
 z2 f3 f f2 | e2 d2 ^c2 d2 |[M:6/4] e3 e f2 e2 d2 ^c2 |[M:2/2] d4 z2 e2- | ee d2 c2 A2 | %34
w: col- li- ge|Chri- ste tu- am,|col- li- ge Chri- ste tu-|am, col-|* li- ge Chri- ste|
 BABc d2 ^cB | ^c2 d2 e2 f2 | e2 d2 e4 | d8 :| %38
w: tu- * * * * * *|||am.|
V:2
 z8 | z8 | d8 | A8 | z2 a4 d2 | edef g2 g2 | f8 | e8 | z2 a4 a2 | gfga g2 g2 | f8 | e8 | z2 a4 a2 | %13
w: ||Non|sum,|non sum|lae- * * * * ta|se-|ges,|Non sum|lae- * * * * ta|se-|ges,|non sum|
 gfga g2 g2 | f8 | e2 ef g2 g2 | d3 e f4 | c2 cd e2 ^c2 | d4 A4 | z4 a4 | f2 e2 d2 ^cB | %21
w: lae- * * * * ta|se-|ges, lo- ti- um sum|tri- * *|ste, lo- ti- um sum|tri- ste,|sed|o- * * * *|
 ^c2 d2 e2 f2 | g2 f2 e4 | d8 :: z8 | e2 ee f2 d2 | ^c4 z4 | e2 ee f2 d2 | ^c2 cc d2 B2 | %29
w: ||ro:||Me ta- men in Mes-|sem,|me ta- men in Mes-|sem, ta- men un Mes-|
 A2 a3 a a2 | g2 f2 e2 ^f2 |[M:6/4]"^-natural" g3 g a2 g2 f2 e2 |[M:2/2] d4 z2 g2- | gg f2 e2 e2 | %34
w: sem, col- li- ge|Chri- ste tu- am,|col- li- ge Chri- ste tu-|am, col-|* li- ge Chri- ste|
 dcde f2 ed | e2 f2 e2 d2 | ^c2 d3 c/B/ c2 | d8 :| %38
w: tu- * * * * * *|||am.|

